X:12
T:Donna's Waltz
C:Phil Cunningham
M:3/4
L:1/8
K:A
(A2 A)>B A>F| D2 F2 E>D| E2 e>c B>A| (B2  B>)c2 B>A|
F(A  A>)B A>F| D2 F2 E>D| E2 F2 A2| (E2  E>)d c>B|
A2 A>B A>F| D2 A>F E>D2| E2 e>c B>A| (B2  B>)c B>2A|
F(A  A)>B A>F| D2 F>A E>D| E2 F2 A2|1 (A2  A>)d c>B:|2 A2 c2 e2|
|: a3 b a>f | g3 a ge|(f2 f)>a f>e| c<(e e)(A A/2)c/2e|
(f2 f>)a f>e| c2 e>c B>A|B>A F>A c>d|(B2  B>d c>B|
A2 A>B A>F| D2 A>F E>D|E>e e>c B>A| A>B B>c B>A |
F(A A>)B A>F| D2 F>A E>D| E2 F2 A2|1 A2 c2 e2 :|2 A6|
